X:1
T:Title
%%score ( 1 2 ) ( 3 4 )
L:1/8
M:4/4
K:Bb
V:1 treble nm="Choir Aahs, Staff"
V:2 treble 
V:3 bass nm="Choir Aahs, Staff-1"
V:4 bass 
V:1
 [DF]3 [DF] [B,D]2 [CF]2 | [DB]2 [Fc]2 [DB]4 | [EG]2 F2 [FB]2 [B,F]2 | [B,F]2 [CE]2 D4 | %4
w: By~John~Stainer * * *||||
 [DF]3 [DF] [B,D]2 [CF]2 | [DB]2 [Dc]2 [DB]4 | [GB]2 A2 c2 [FA]2 | G2- [=EG]2 F4 | %8
w: ||||
 [Fc]3 [Fc] F2 [Fc]2 | [FB]2 [Fd]2 [Fc]4 | [Gc]2 B2 e2 [Fd]2 | [Gc]4 [^Fd]4 | %12
w: ||||
 [^Fd]3 [FA] [FA]2 [DF]2 | [DG]2 [^FA]2 [GB]2 [Ac]2 | [Bd]2 [Ac]2 [Bf]2 [Bd]2 | c2- [Ac]2 B4 |] %16
w: ||||
V:2
 x8 | x8 | x8 | x8 | x8 | x8 | z2 F4 z2 | F2 z2 z4 | x8 | x8 | z2 F4 z2 | x8 | x8 | x8 | x8 | %15
 B2 z2 z4 |] %16
V:3
 [B,,B,]3 [B,,B,] [B,D]2 [A,C]2 | [G,B,]2 [F,A,]2 B,4 | B,2 A,2 [D,B,]2 [D,B,]2 | %3
 [C,G,]2 [F,A,]2 [B,,B,]4 | [B,,B,]3 [B,,B,] [B,D]2 [A,C]2 | [G,B,]2 [^F,A,]2 B,2- [=F,B,]2 | %6
 C6 z2 | C4 z4 | [F,A,]3 [F,A,] [F,A,]2 [F,A,]2 | [D,B,]2 [B,,B,]2 [F,A,]4 | %10
 [E,G,]2 [D,B,]2 [C,A,]2 [B,,B,]2 | [E,G,]4 [D,A,]4 | [D,A,]3[K:treble] D D2 [CD]2 | %13
 [B,D]2 [A,C]2 [G,D]2 [F,F]2 | [B,F]2 [CE]2 D2 [B,F]2 | F3 E [B,D]4 |] %16
V:4
 x8 | x8 | E,4 z4 | x8 | x8 | z4 G,2 z2 | =E,2 F,2 A,2 [F,C]2 | C,3- [C,B,] [F,A,]4 | x8 | x8 | %10
 x8 | x8 | x3[K:treble] x5 | x8 | x8 | F,4 z4 |] %16

